X: 25209
T: Malcolm's New Fiddle
R: jig
M: 6/8
K: Emajor
|:B,2 E EFG|F2 E EGB|egf fec|BGE FEC|
B,2 E EFG|F2 E EGB|egf fec|1 BGE EB,C:|2 BGE EGA||
|:B2 B BGB|Beg fge|c2c BGe|BGE FGA|
B2 B BGB|Beg fge|1 c2c BGe|EFE EGA:|2 c3 B3|G3 FEC||

